templates/restaurant-template/img/facebook-gold.svg

<?xml version="1.0" encoding="utf-8"?>
<!-- Generated by IcoMoon.io -->
<!DOCTYPE svg PUBLIC "-//W3C//DTD SVG 1.1//EN" "http://www.w3.org/Graphics/SVG/1.1/DTD/svg11.dtd">
<svg version="1.1" xmlns="http://www.w3.org/2000/svg" xmlns:xlink="http://www.w3.org/1999/xlink" width="9" height="16" viewBox="0 0 9 16">
<path fill="#CC9900" d="M8.563 0.107v2.357h-1.402q-0.768 0-1.036 0.321t-0.268 0.964v1.688h2.616l-0.348 2.643h-2.268v6.777h-2.732v-6.777h-2.277v-2.643h2.277v-1.946q0-1.661 0.929-2.576t2.473-0.915q1.313 0 2.036 0.107z"></path>
</svg>

<svg xmlns="http://www.w3.org/2000/svg" width="9" height="16"><path fill="#C90" d="M8.563.107v2.357H7.161q-.768 0-1.036.321t-.268.964v1.688h2.616L8.125 8.08H5.857v6.777H3.125V8.08H.848V5.437h2.277V3.491q0-1.661.929-2.576T6.527 0Q7.84 0 8.563.107z"/></svg>
